X: 22647
T: Lairds Of Ryton, The
R: slip jig
M: 9/8
K: Gmajor
ABG Bdf gdB|dgf dgB ceg|ABG Bdf gdB|~c3 gec efg:|
|:efd dBd dBd|efd dBd ecg|efd dBd gdB|~c3 gec efg:|

